static/vitrine/images/edit.svg

<svg enable-background="new 0 0 25.5 21.7" viewBox="0 0 25.5 21.7" xmlns="http://www.w3.org/2000/svg"><path d="m8.6 13.3-1.5 5.1 5.1-1.5 9.9-9.9-3.7-3.7zm10.4-7.7c.2.2.2.6 0 .8l-7.7 7.7c-.2.2-.6.2-.8 0s-.2-.6 0-.8l7.7-7.7c.2-.2.6-.2.8 0zm6.5-2-2.4 2.4-3.6-3.6 2.4-2.4zm-10 12.4 1.8-1.8v7.5h-17.3v-17l5.1-4.3h12.2v2.3l-1.8 1.8v-2.7h-8.4v4.5h-5.3v13.9h13.7z" fill="#2b4c6f"/></svg>

<?xml version="1.0" encoding="utf-8"?>
<!-- Generator: Adobe Illustrator 22.1.0, SVG Export Plug-In . SVG Version: 6.00 Build 0)  -->
<svg version="1.1" id="Calque_1" xmlns="http://www.w3.org/2000/svg" xmlns:xlink="http://www.w3.org/1999/xlink" x="0px" y="0px"
	 viewBox="0 0 25.5 21.7" style="enable-background:new 0 0 25.5 21.7;" xml:space="preserve">
<style type="text/css">
	.st0{fill:#2B4C6F;}
</style>
<path class="st0" d="M8.6,13.3l-1.5,5.1l5.1-1.5l9.9-9.9l-3.7-3.7L8.6,13.3z M19,5.6c0.2,0.2,0.2,0.6,0,0.8l-7.7,7.7
	c-0.2,0.2-0.6,0.2-0.8,0c-0.2-0.2-0.2-0.6,0-0.8l7.7-7.7C18.4,5.4,18.8,5.4,19,5.6z M25.5,3.6l-2.4,2.4l-3.6-3.6L21.9,0L25.5,3.6z
	 M15.5,16l1.8-1.8v7.5H0V4.7l5.1-4.3h12.2v2.3l-1.8,1.8V1.8H7.1v4.5H1.8v13.9h13.7V16z"/>
</svg>
